lib/svgs/xiaomi.svg

<svg xmlns="http://www.w3.org/2000/svg" viewBox="0 0 20 20">
    <path fill="#000" fill-rule="evenodd" d="M2,5.06029856 L2.21872,5.06029856 L11,5.06029856 C11.90624,5.06029856 12.62496,5.42178151 13.12496,6.14459318 C13.37504,6.47600395 13.5,6.86755906 13.5,7.25911418 L13.5,7.74104003 L13.5,14.8192585 C13.5,15 13.5,15 13.31248,15 L11.24992,15 C11.12496,15 11.09376,14.9699278 11.09376,14.8494849 L11.09376,7.83141077 C11.09376,7.53022639 10.93744,7.37955709 10.65632,7.37955709 L4.59376,7.37955709 C4.43744,7.37955709 4.43744,7.43985565 4.43744,7.56029856 L4.43744,14.6988156 C4.43744,15 4.43744,15 4.09376,15 L2.15632,15 L2,15 L2,5.06029856 L2,5.06029856 L2,5.06029856 Z M8.93744,15 L6.56256,15 L6.56256,14.8192585 L6.56256,9.12651903 C6.56256,8.97600395 6.59376,8.94577756 6.71872,8.94577756 L8.81248,8.94577756 C8.90624,8.94577756 8.93744,8.97600395 8.93744,9.09644686 L8.93744,14.8795571 L8.93744,15 L8.93744,15 L8.93744,15 Z M18,15 L17.12496,15 L15.71872,15 L15.56256,15 L15.56256,14.7891864 L15.56256,5.18074147 C15.56256,5.12059713 15.5312,5.06029856 15.5312,5 L18,5 L18,15 L18,15 L18,15 Z"/>
</svg>

<svg xmlns="http://www.w3.org/2000/svg" viewBox="0 0 20 20">
    <path fill="#000" fill-rule="evenodd" d="M2 5.06h9c.906 0 1.625.362 2.125 1.085.25.331.375.723.375 1.114V14.82c0 .181 0 .181-.188.181H11.25c-.125 0-.156-.03-.156-.15V7.83c0-.3-.157-.451-.438-.451H4.594c-.157 0-.157.06-.157.18V14.7c0 .301 0 .301-.343.301H2V5.06M8.937 15H6.563V9.127c0-.151.03-.181.156-.181h2.093c.094 0 .125.03.125.15V15M18 15h-2.437V5.18c0-.06-.032-.12-.032-.18H18v10"/>
</svg>
